!!!COM: Emmanuel Chabrier
!!!CNT: Francais
!!!TXO: Francais
!!!OTL: "Ballade des gros dindons"
!!!LYR: Rostand
!!!OPR: 
!!!OPS:  
!!!ONM:  
!!!ENC: Emily Thomas
!!!YOR: CD Sheet Music French Art Songs, The Ultimate Collection
!!!YOR: CD Sheet Music, LLC 2003
!!!ODT: 1889/
!!NB: Vocal melody and text encoded.
**kern	**silbe
=1	=1
*clefG2	*
*k[b-]	*
*M2/4	*
*MM[Moderato]	*
2r	.
=2	=2
2r	.
=3	=3
4r	.
8.r	.
{16a	{Les
=4	=4
8f	gros
8a	din-
8f}	-dons,}
16r	.
{16a	{a\
=5	=5
8g	trav-
8a	-ers
8g}	champs,}
16r	.
{16a	{Dun
=7	=7
12f	pas
12g	so-
12a	-len-
12f	-nel
12g	et
12a	tran-
=8	=8
4g	-quil-
8g}	-le,}
16r	.
{16a	{Par
=9	=9
8f	les
8a	mat-
8f}	-ins,}
16r	.
{16a	{par
=10	=10
8g	les
8a	couch-
12g	-ants,
12f	Be^-
12e	-te-
=11	=11
12d	-ment
12e	march-
12d	-ent
8e	a\
8d	la
=12	=12
4c	fi-
12c}	-le,}
12r	.
{12f	{De-
=13	=13
12b-	-vant
12cc	la
12b-	pas-
12b-	-tou-
12cc	-re
12b-	qui
=14	=14
4b-	fi-
4g}	-le,}
=15	=15
{12b-	{En
12b-	fre-
12b-	-don-
8b-	-nant
8cc	de
=16	=16
8a	vieux
8b-	fre-
12cc	-dons,
12a	Vont
12g	en
=17	=17
12f	pro-
12g	-ces-
12f	-si-
8d	-on
8Bn	do-
=18	=18
4ff	-ci-
8cc}	-le}
{8f	{Les
=19	=19
*M6/8	*
4.e	gros
4.g	din-
=20	=20
2.f}	-dons!}
=21	=21
2.r	.
=22	=22
2.r	.
=23	=23
2.r	.
=24	=24
2.r	.
=25	=25
2.r	.
=26	=26
4.r	.
8r	.
8r	.
16r	.
{16a	{Ils
=27	=27
*M2/4	*
8f	vous
8a	ont
8.f	l'air
16a	de
=28	=28
8g	gros
8a	march-
8.g	-ands
16a	Rem-
=29	=29
12f	-plis
12g	d'
12a	une
12f	morgue
12g	im-
12a	-be/-
=30	=30
4g	-ci-
8g}	-le,}
16r	.
{16a	{De
=31	=31
8f	bail-
8a	-lis
8.f	ro-
16a	-gues
=32	=32
8g	et
8a	me/-
12g	-chants
12f	Vous
12e	re-
=33	=33
12d	-gar-
12e	-dant
12d	d'un
8e	oeil
8d	hos-
=34	=34
4c	-ti-
12c}	-le;}
12r	.
{12f	{Leur
=35	=35
12b-	rou-
12cc	-ge
12b-	pen-
12b-	-de-
12cc	-loque
12b-	os-
=36	=36
4b-	-cil-
4g}	-le;}
=37	=37
{12b-	{Ils
12b-	sem-
12b-	-blent,
8b-	par-
8cc	-mi
=38	=38
8a	les
8b-	char-
12cc	-dons,
12a	Gra-
12g	-ve-
=39	=39
12f	-ment
12g	te-
12f	-nir
8d	un
8Bn	con-
=40	=40
4ff	-ci-
8cc}	-le,}
{8f	{Les
=41	=41
*M6/8	*
4.e	gros
4.g	din-
=42	=42
2.f}	-dons!}
=43	=43
2.r	.
=44	=44
2.r	.
=45	=45
2.r	.
=46	=46
2.r	.
=47	=47
2.r	.
=48	=48
4.r	.
8r	.
8r	.
16r	.
{16a	{N'a-
=49	=49
*M2/4	*
8f	-yant
8a	ja-
8.f	-mais
16a	trou-
=50	=50
8g	-ve/
8a	tou-
8.g	-chants
16a	Les
=51	=51
12f	sons
12g	que
12a	le
12f	ros-
12g	-si-
12a	-gnol,
=52	=52
4g	fi-
8g}	-le,}
16r	.
{16a	{Ils
=53	=53
8f	sui-
8a	-vent,
8.f	lourds
16a	et
=54	=54
8g	tre/-
8a	-bu-
12g	-chants,
12f	L'un
12e	d'eux,
=55	=55
12d	di-
12e	-gne
12d	comme
8e	un
8d	e/-
=56	=56
4c	-di-
12c}	-le;}
12r	.
{12f	{Et,
=57	=57
12b-	lours-
12cc	-qu'au
12b-	loin-
12b-	-tain
12cc	cam-
12b-	-pa-
=58	=58
4b-	-ni-
4g}	-le}
=59	=59
{12b-	{L'an-
12b-	-ge-
12b-	-lus
8b-	fait
8cc	ses
=60	=60
8a	lents
8b-	din!
12cc	dons!
12a	Ils
12g	re-
=61	=61
12f	-gag-
12g	-nent
12f	leur
8d	do-
8Bn	-mi-
=62	=62
4ff	-ci-
8cc}	-le,}
{8f	{Les
=63	=63
*M6/8	*
4.e	gros
4.g	din-
=64	=64
2.f}	-dons!}
=65	=65
2.r	.
=66	=66
2.r	.
=67	=67
2.r	.
=68	=68
2.r	.
=69	=69
2.r	.
=70	=70
4.r	.
8r	.
8r	.
16r	.
{16a	{Prud'
=71	=71
*M2/4	*
8f	hom-
8a	-mes
8.f	gras,
16a	leurs
=72	=72
8g	seuls
8a	pen-
8.g	-chants
16a	sont
=73	=73
12f	vers
12g	le
12a	pra-
12f	-tique
12g	et
12a	l'u
=74	=74
4g	-ti-
8g}	-le,}
16r	.
{16a	{Pour
=75	=75
8f	eux,
8a	l'a-
8f}	-mour}
16r	.
{16a	{et
=76	=76
8g	les
8a	doux
12g	chants
12f	Sont
12e	un
=77	=77
12d	pas-
12e	-se-
12d	-temps
8e	trop
8d	fu-
=78	=78
4c	-ti-
12c}	-le,}
12r	.
{12f	{Bour-
=79	=79
12b-	-geois
12cc	de
12b-	la
12b-	gent
12cc	vo-
12b-	-la-
=80	=80
4b-	-ti-
4g}	-le,}
=81	=81
{12b-	{Ar-
12b-	-ron-
12b-	-dis-
8b-	-sant
8cc	de
=82	=82
8a	noirs
8b-	be-
12cc	-dons,
12a	Ils
12g	se-
=83	=83
12f	-fi-
12g	-chent
12f	de
8d	toute
8Bn	i-
=84	=84
4ff	-dyl-
8cc}	-le,}
{8f	{Les
=85	=85
*M6/8	*
4.e	gros
4.g	din-
=86	=86
2.f}	-dons!}
==	==
*-	*-
